lib/flags/l/AG.svg

<svg xmlns="http://www.w3.org/2000/svg" fill="none" viewBox="0 0 32 24"><mask id="AG_svg__a" width="32" height="24" x="0" y="0" mask-type="alpha" maskUnits="userSpaceOnUse"><path fill="#fff" d="M0 0H32V24H0z"/></mask><g mask="url(#AG_svg__a)"><path fill="#1B1B1B" fill-rule="evenodd" d="M0 0H32V24H0V0Z" clip-rule="evenodd"/><path fill="#F9D313" fill-rule="evenodd" d="M16 14L13.9973 17.7994L14.0475 13.6039L10.3886 16.2547L12.4818 12.494L7.89128 13.4711L11.6128 10.8901L7 10L11.6128 9.10992L7.89128 6.52893L12.4818 7.50604L10.3886 3.74535L14.0475 6.39612L13.9973 2.20058L16 6L18.0027 2.20058L17.9525 6.39612L21.6114 3.74535L19.5182 7.50604L24.1087 6.52893L20.3872 9.10992L25 10L20.3872 10.8901L24.1087 13.4711L19.5182 12.494L21.6114 16.2547L17.9525 13.6039L18.0027 17.7994L16 14Z" clip-rule="evenodd"/><path fill="#F1F9FF" d="M6 14H26V24H6z"/><path fill="#4A80E8" d="M2 10H30V14H2z"/><path fill="#E31D1C" fill-rule="evenodd" d="M0 6L16 24L32 6V24H0V6Z" clip-rule="evenodd"/></g></svg>

<svg xmlns="http://www.w3.org/2000/svg" fill="none" viewBox="0 0 32 24"><mask id="AG_svg__a" width="32" height="24" x="0" y="0" maskUnits="userSpaceOnUse"><path fill="#fff" d="M0 0h32v24H0z"/></mask><g mask="url(#AG_svg__a)"><path fill="#1B1B1B" fill-rule="evenodd" d="M0 0h32v24H0V0z" clip-rule="evenodd"/><path fill="#F9D313" fill-rule="evenodd" d="M16 14l-2.003 3.8.05-4.196-3.658 2.65 2.093-3.76-4.59.977 3.72-2.58L7 10l4.613-.89L7.89 6.529l4.59.977-2.092-3.76 3.659 2.65-.05-4.195L16 6l2.003-3.8-.05 4.196 3.658-2.65-2.093 3.76 4.59-.977-3.72 2.58L25 10l-4.613.89 3.722 2.581-4.59-.977 2.092 3.76-3.659-2.65.05 4.195L16 14z" clip-rule="evenodd"/><path fill="#F1F9FF" d="M6 14h20v10H6z"/><path fill="#4A80E8" d="M2 10h28v4H2z"/><path fill="#E31D1C" fill-rule="evenodd" d="M0 6l16 18L32 6v18H0V6z" clip-rule="evenodd"/></g></svg>
